images/ProcessIcons/Testing.svg

<svg width="24" height="24" viewBox="0 0 24 24" fill="none" xmlns="http://www.w3.org/2000/svg">
<path d="M17.25 6.9002L15.3 4.9502L14.25 6.0002L17.25 9.0002L22.5 3.7502L21.45 2.7002L17.25 6.9002ZM9 4.0502L7.95 3.0002L6 4.9502L4.05 3.0002L3 4.0502L4.95 6.0002L3 7.9502L4.05 9.0002L6 7.0502L7.95 9.0002L9 7.9502L7.05 6.0002L9 4.0502ZM9 16.0502L7.95 15.0002L6 16.9502L4.05 15.0002L3 16.0502L4.95 18.0002L3 19.9502L4.05 21.0002L6 19.0502L7.95 21.0002L9 19.9502L7.05 18.0002L9 16.0502Z" fill="black"/>
<path d="M12.75 11.25V1.5H11.25V11.25H1.5V12.75H11.25V22.5H12.75V12.75H22.5V11.25H12.75Z" fill="black"/>
</svg>

<svg xmlns="http://www.w3.org/2000/svg" width="24" height="24" fill="#000" xmlns:v="https://vecta.io/nano"><path d="M17.25 6.9L15.3 4.95 14.25 6l3 3 5.25-5.25-1.05-1.05-4.2 4.2zM9 4.05L7.95 3 6 4.95 4.05 3 3 4.05 4.95 6 3 7.95 4.05 9 6 7.05 7.95 9 9 7.95 7.05 6 9 4.05zm0 12L7.95 15 6 16.95 4.05 15 3 16.05 4.95 18 3 19.95 4.05 21 6 19.05 7.95 21 9 19.95 7.05 18 9 16.05zm3.75-4.8V1.5h-1.5v9.75H1.5v1.5h9.75v9.75h1.5v-9.75h9.75v-1.5h-9.75z"/></svg>
